dist/img/svg/header_login.svg

<svg xmlns="http://www.w3.org/2000/svg" width="25" height="22" viewBox="0 0 25 22">
<path d="M24.6474 12.8491C24.6474 6.30371 19.3222 0.978516 12.7768 0.978516C6.23144 0.978516 0.90625 6.30371 0.90625 12.8491C0.90625 15.9897 2.15846 19.0069 4.36152 21.2222C4.57433 19.6361 5.75272 18.2549 7.43248 17.693L10.9628 16.511C11.0294 16.489 11.1013 16.4913 11.1661 16.5176C12.2075 16.9443 13.3462 16.9443 14.3876 16.5176C14.4523 16.4913 14.5246 16.489 14.5909 16.511L18.1212 17.693C19.8009 18.2549 20.9793 19.6361 21.1921 21.2222C23.3952 19.0068 24.6474 15.9896 24.6474 12.8491ZM14.6435 15.265C14.0461 15.5636 13.4181 15.715 12.7768 15.715C12.1356 15.715 11.5075 15.5636 10.9102 15.265C9.08312 14.3514 7.80717 12.1558 7.80717 9.92568C7.80717 6.94413 10.0365 4.51861 12.7768 4.51861C15.5172 4.51861 17.7465 6.94413 17.7465 9.92568C17.7465 12.1558 16.4705 14.3514 14.6435 15.265Z"/>
</svg>

<svg xmlns="http://www.w3.org/2000/svg" width="25" height="22" viewBox="0 0 25 22"><path d="M24.647 12.85c0-6.546-5.325-11.871-11.87-11.871C6.23.979.907 6.304.907 12.849a11.89 11.89 0 003.455 8.373c.212-1.586 1.39-2.967 3.07-3.529l3.53-1.182a.294.294 0 01.204.007 4.214 4.214 0 003.222 0 .294.294 0 01.203-.007l3.53 1.182c1.68.562 2.858 1.943 3.071 3.53a11.894 11.894 0 003.455-8.374zm-10.003 2.415a4.145 4.145 0 01-1.867.45 4.14 4.14 0 01-1.867-.45c-1.827-.914-3.103-3.11-3.103-5.34 0-2.98 2.23-5.406 4.97-5.406 2.74 0 4.97 2.425 4.97 5.407 0 2.23-1.276 4.425-3.104 5.339z"/></svg>
